packages/elvis-assets-icons/icons/svg/src/user_testing-color.svg

<svg width="40" height="40" viewBox="0 0 40 40" fill="none" xmlns="http://www.w3.org/2000/svg">
<path d="M3.135 28.75C1.42 28.75 0.015 27.3583 0 25.6467V3.10333C0.0133333 1.39 1.41333 0 3.11833 0H30.615C32.3317 0 33.735 1.39167 33.75 3.10167V7.5C33.75 8.19 33.19 8.75 32.5 8.75H2.5V25.635C2.50333 25.9717 2.78667 26.25 3.13167 26.25H18.75C19.44 26.25 20 26.81 20 27.5C20 28.19 19.44 28.75 18.75 28.75H3.135ZM31.25 6.25V3.11333C31.2467 2.77833 30.965 2.5 30.62 2.5H3.12C2.78167 2.5 2.50333 2.775 2.5 3.11333V6.25H31.25Z" fill="black"/>
<path d="M19.8136 40C19.3919 40 18.9769 39.8933 18.6102 39.6917C18.0252 39.3717 17.6002 38.8417 17.4136 38.2017C17.2269 37.5617 17.3002 36.885 17.6219 36.3L25.0086 24.6317L25.0002 17.5C25.0002 16.1217 26.1219 15 27.5002 15H30.0002C31.3786 15 32.5002 16.1217 32.5002 17.5V24.645C32.5002 24.645 39.5036 36.2933 39.5069 36.2983C39.7086 36.67 39.8152 37.085 39.8136 37.5017C39.8136 38.1683 39.5536 38.7967 39.0802 39.2683C38.6086 39.74 37.9819 40 37.3136 40H19.8136ZM37.3136 37.5L33.5552 31.25H23.7769L19.8252 37.49L37.3136 37.5ZM32.0519 28.75L30.3669 25.945C30.1286 25.5617 30.0002 25.11 30.0002 24.6467V17.5H27.5002V24.645C27.4986 25.11 27.3702 25.5633 27.1286 25.9567L25.3602 28.75H32.0519Z" fill="black"/>
<path d="M36.25 16.25C35.56 16.25 35 15.69 35 15V13.75H33.75C33.06 13.75 32.5 13.19 32.5 12.5C32.5 11.81 33.06 11.25 33.75 11.25H35V10C35 9.31 35.56 8.75 36.25 8.75C36.94 8.75 37.5 9.31 37.5 10V11.25H38.75C39.44 11.25 40 11.81 40 12.5C40 13.19 39.44 13.75 38.75 13.75H37.5V15C37.5 15.69 36.94 16.25 36.25 16.25Z" fill="#29D305"/>
<path d="M18.75 19.75C18.06 19.75 17.5 19.19 17.5 18.5V17.25H16.25C15.56 17.25 15 16.69 15 16C15 15.31 15.56 14.75 16.25 14.75H17.5V13.5C17.5 12.81 18.06 12.25 18.75 12.25C19.44 12.25 20 12.81 20 13.5V14.75H21.25C21.94 14.75 22.5 15.31 22.5 16C22.5 16.69 21.94 17.25 21.25 17.25H20V18.5C20 19.19 19.44 19.75 18.75 19.75Z" fill="#29D305"/>
</svg>

<svg width="40" height="40" fill="none" xmlns="http://www.w3.org/2000/svg"><path d="M3.135 28.75A3.141 3.141 0 010 25.647V3.103A3.131 3.131 0 013.118 0h27.497a3.14 3.14 0 013.135 3.102V7.5c0 .69-.56 1.25-1.25 1.25h-30v16.885a.63.63 0 00.632.615H18.75a1.25 1.25 0 010 2.5H3.135zM31.25 6.25V3.113a.628.628 0 00-.63-.613H3.12a.622.622 0 00-.62.613V6.25h28.75z" fill="#000"/><path d="M19.814 40a2.501 2.501 0 01-2.4-1.798 2.482 2.482 0 01.208-1.902l7.387-11.668L25 17.5c0-1.378 1.122-2.5 2.5-2.5H30c1.379 0 2.5 1.122 2.5 2.5v7.145l7.007 11.653c.202.372.308.787.307 1.204 0 .666-.26 1.295-.734 1.766a2.48 2.48 0 01-1.766.732h-17.5zm17.5-2.5l-3.759-6.25h-9.778l-3.952 6.24 17.489.01zm-5.262-8.75l-1.685-2.805A2.463 2.463 0 0130 24.647V17.5h-2.5v7.145a2.52 2.52 0 01-.371 1.312L25.36 28.75h6.692z" fill="#000"/><path d="M36.25 16.25c-.69 0-1.25-.56-1.25-1.25v-1.25h-1.25a1.25 1.25 0 010-2.5H35V10a1.25 1.25 0 012.5 0v1.25h1.25a1.25 1.25 0 010 2.5H37.5V15c0 .69-.56 1.25-1.25 1.25zM18.75 19.75c-.69 0-1.25-.56-1.25-1.25v-1.25h-1.25a1.25 1.25 0 010-2.5h1.25V13.5a1.25 1.25 0 012.5 0v1.25h1.25a1.25 1.25 0 010 2.5H20v1.25c0 .69-.56 1.25-1.25 1.25z" fill="#29D305"/></svg>
